;fileName:Flash.stl #0
;machineType:default
;estimatedPrintTime:2342.77
;volume:0.441679
;resin:normal
;weight:0.485847
;price:0.0132504
;layerHeight:0.05
;resolutionX:768
;resolutionY:480
;machineX:43.2
;machineY:27
;machineZ:180
;projectType:DLP_normal
;normalExposureTime:6
;bottomLayExposureTime:50
;bottomLayerExposureTime:50
;normalDropSpeed:150
;normalLayerLiftHeight:5
;zSlowUpDistance:0
;normalLayerLiftSpeed:65
;bottomLayCount:0
;bottomLayerCount:0
;mirror:0
;totalLayer:180
;bottomLayerLiftHeight:5
;bottomLayerLiftSpeed:65
;bottomLightOffTime:0
;lightOffTime:0
;START_GCODE_BEGIN
G21;
G90;
M106 S0;
G28 Z0;

;START_GCODE_END

;LAYER_START:0
;currPos:0.05
M6054 "1.png";show Image
G0 Z5.05 F65;
G0 Z0.05 F150;
G4 P0;
M106 S255;light on
G4 P6000;
M106 S0; light off

;LAYER_END

;LAYER_START:1
;currPos:0.1
M6054 "2.png";show Image
G0 Z5.1 F65;
G0 Z0.1 F150;
G4 P0;
M106 S255;light on
G4 P6000;
M106 S0; light off

;LAYER_END

;LAYER_START:2
;currPos:0.15
M6054 "3.png";show Image
G0 Z5.15 F65;
G0 Z0.15 F150;
G4 P0;
M106 S255;light on
G4 P6000;
M106 S0; light off

;LAYER_END

;LAYER_START:3
;currPos:0.2
M6054 "4.png";show Image
G0 Z5.2 F65;
G0 Z0.2 F150;
G4 P0;
M106 S255;light on
G4 P6000;
M106 S0; light off

;LAYER_END

;LAYER_START:4
;currPos:0.25
M6054 "5.png";show Image
G0 Z5.25 F65;
G0 Z0.25 F150;
G4 P0;
M106 S255;light on
G4 P6000;
M106 S0; light off

;LAYER_END

;LAYER_START:5
;currPos:0.3
M6054 "6.png";show Image
G0 Z5.3 F65;
G0 Z0.3 F150;
G4 P0;
M106 S255;light on
G4 P6000;
M106 S0; light off

;LAYER_END

;LAYER_START:6
;currPos:0.35
M6054 "7.png";show Image
G0 Z5.35 F65;
G0 Z0.35 F150;
G4 P0;
M106 S255;light on
G4 P6000;
M106 S0; light off

;LAYER_END

;LAYER_START:7
;currPos:0.4
M6054 "8.png";show Image
G0 Z5.4 F65;
G0 Z0.4 F150;
G4 P0;
M106 S255;light on
G4 P6000;
M106 S0; light off

;LAYER_END

;LAYER_START:8
;currPos:0.45
M6054 "9.png";show Image
G0 Z5.45 F65;
G0 Z0.45 F150;
G4 P0;
M106 S255;light on
G4 P6000;
M106 S0; light off

;LAYER_END

;LAYER_START:9
;currPos:0.5
M6054 "10.png";show Image
G0 Z5.5 F65;
G0 Z0.5 F150;
G4 P0;
M106 S255;light on
G4 P6000;
M106 S0; light off

;LAYER_END

;LAYER_START:10
;currPos:0.55
M6054 "11.png";show Image
G0 Z5.55 F65;
G0 Z0.55 F150;
G4 P0;
M106 S255;light on
G4 P6000;
M106 S0; light off

;LAYER_END

;LAYER_START:11
;currPos:0.6
M6054 "12.png";show Image
G0 Z5.6 F65;
G0 Z0.6 F150;
G4 P0;
M106 S255;light on
G4 P6000;
M106 S0; light off

;LAYER_END

;LAYER_START:12
;currPos:0.65
M6054 "13.png";show Image
G0 Z5.65 F65;
G0 Z0.65 F150;
G4 P0;
M106 S255;light on
G4 P6000;
M106 S0; light off

;LAYER_END

;LAYER_START:13
;currPos:0.7
M6054 "14.png";show Image
G0 Z5.7 F65;
G0 Z0.7 F150;
G4 P0;
M106 S255;light on
G4 P6000;
M106 S0; light off

;LAYER_END

;LAYER_START:14
;currPos:0.75
M6054 "15.png";show Image
G0 Z5.75 F65;
G0 Z0.75 F150;
G4 P0;
M106 S255;light on
G4 P6000;
M106 S0; light off

;LAYER_END

;LAYER_START:15
;currPos:0.8
M6054 "16.png";show Image
G0 Z5.8 F65;
G0 Z0.8 F150;
G4 P0;
M106 S255;light on
G4 P6000;
M106 S0; light off

;LAYER_END

;LAYER_START:16
;currPos:0.85
M6054 "17.png";show Image
G0 Z5.85 F65;
G0 Z0.85 F150;
G4 P0;
M106 S255;light on
G4 P6000;
M106 S0; light off

;LAYER_END

;LAYER_START:17
;currPos:0.9
M6054 "18.png";show Image
G0 Z5.9 F65;
G0 Z0.9 F150;
G4 P0;
M106 S255;light on
G4 P6000;
M106 S0; light off

;LAYER_END

;LAYER_START:18
;currPos:0.95
M6054 "19.png";show Image
G0 Z5.95 F65;
G0 Z0.95 F150;
G4 P0;
M106 S255;light on
G4 P6000;
M106 S0; light off

;LAYER_END

;LAYER_START:19
;currPos:1
M6054 "20.png";show Image
G0 Z6 F65;
G0 Z1 F150;
G4 P0;
M106 S255;light on
G4 P6000;
M106 S0; light off

;LAYER_END

;LAYER_START:20
;currPos:1.05
M6054 "21.png";show Image
G0 Z6.05 F65;
G0 Z1.05 F150;
G4 P0;
M106 S255;light on
G4 P6000;
M106 S0; light off

;LAYER_END

;LAYER_START:21
;currPos:1.1
M6054 "22.png";show Image
G0 Z6.1 F65;
G0 Z1.1 F150;
G4 P0;
M106 S255;light on
G4 P6000;
M106 S0; light off

;LAYER_END

;LAYER_START:22
;currPos:1.15
M6054 "23.png";show Image
G0 Z6.15 F65;
G0 Z1.15 F150;
G4 P0;
M106 S255;light on
G4 P6000;
M106 S0; light off

;LAYER_END

;LAYER_START:23
;currPos:1.2
M6054 "24.png";show Image
G0 Z6.2 F65;
G0 Z1.2 F150;
G4 P0;
M106 S255;light on
G4 P6000;
M106 S0; light off

;LAYER_END

;LAYER_START:24
;currPos:1.25
M6054 "25.png";show Image
G0 Z6.25 F65;
G0 Z1.25 F150;
G4 P0;
M106 S255;light on
G4 P6000;
M106 S0; light off

;LAYER_END

;LAYER_START:25
;currPos:1.3
M6054 "26.png";show Image
G0 Z6.3 F65;
G0 Z1.3 F150;
G4 P0;
M106 S255;light on
G4 P6000;
M106 S0; light off

;LAYER_END

;LAYER_START:26
;currPos:1.35
M6054 "27.png";show Image
G0 Z6.35 F65;
G0 Z1.35 F150;
G4 P0;
M106 S255;light on
G4 P6000;
M106 S0; light off

;LAYER_END

;LAYER_START:27
;currPos:1.4
M6054 "28.png";show Image
G0 Z6.4 F65;
G0 Z1.4 F150;
G4 P0;
M106 S255;light on
G4 P6000;
M106 S0; light off

;LAYER_END

;LAYER_START:28
;currPos:1.45
M6054 "29.png";show Image
G0 Z6.45 F65;
G0 Z1.45 F150;
G4 P0;
M106 S255;light on
G4 P6000;
M106 S0; light off

;LAYER_END

;LAYER_START:29
;currPos:1.5
M6054 "30.png";show Image
G0 Z6.5 F65;
G0 Z1.5 F150;
G4 P0;
M106 S255;light on
G4 P6000;
M106 S0; light off

;LAYER_END

;LAYER_START:30
;currPos:1.55
M6054 "31.png";show Image
G0 Z6.55 F65;
G0 Z1.55 F150;
G4 P0;
M106 S255;light on
G4 P6000;
M106 S0; light off

;LAYER_END

;LAYER_START:31
;currPos:1.6
M6054 "32.png";show Image
G0 Z6.6 F65;
G0 Z1.6 F150;
G4 P0;
M106 S255;light on
G4 P6000;
M106 S0; light off

;LAYER_END

;LAYER_START:32
;currPos:1.65
M6054 "33.png";show Image
G0 Z6.65 F65;
G0 Z1.65 F150;
G4 P0;
M106 S255;light on
G4 P6000;
M106 S0; light off

;LAYER_END

;LAYER_START:33
;currPos:1.7
M6054 "34.png";show Image
G0 Z6.7 F65;
G0 Z1.7 F150;
G4 P0;
M106 S255;light on
G4 P6000;
M106 S0; light off

;LAYER_END

;LAYER_START:34
;currPos:1.75
M6054 "35.png";show Image
G0 Z6.75 F65;
G0 Z1.75 F150;
G4 P0;
M106 S255;light on
G4 P6000;
M106 S0; light off

;LAYER_END

;LAYER_START:35
;currPos:1.8
M6054 "36.png";show Image
G0 Z6.8 F65;
G0 Z1.8 F150;
G4 P0;
M106 S255;light on
G4 P6000;
M106 S0; light off

;LAYER_END

;LAYER_START:36
;currPos:1.85
M6054 "37.png";show Image
G0 Z6.85 F65;
G0 Z1.85 F150;
G4 P0;
M106 S255;light on
G4 P6000;
M106 S0; light off

;LAYER_END

;LAYER_START:37
;currPos:1.9
M6054 "38.png";show Image
G0 Z6.9 F65;
G0 Z1.9 F150;
G4 P0;
M106 S255;light on
G4 P6000;
M106 S0; light off

;LAYER_END

;LAYER_START:38
;currPos:1.95
M6054 "39.png";show Image
G0 Z6.95 F65;
G0 Z1.95 F150;
G4 P0;
M106 S255;light on
G4 P6000;
M106 S0; light off

;LAYER_END

;LAYER_START:39
;currPos:2
M6054 "40.png";show Image
G0 Z7 F65;
G0 Z2 F150;
G4 P0;
M106 S255;light on
G4 P6000;
M106 S0; light off

;LAYER_END

;LAYER_START:40
;currPos:2.05
M6054 "41.png";show Image
G0 Z7.05 F65;
G0 Z2.05 F150;
G4 P0;
M106 S255;light on
G4 P6000;
M106 S0; light off

;LAYER_END

;LAYER_START:41
;currPos:2.1
M6054 "42.png";show Image
G0 Z7.1 F65;
G0 Z2.1 F150;
G4 P0;
M106 S255;light on
G4 P6000;
M106 S0; light off

;LAYER_END

;LAYER_START:42
;currPos:2.15
M6054 "43.png";show Image
G0 Z7.15 F65;
G0 Z2.15 F150;
G4 P0;
M106 S255;light on
G4 P6000;
M106 S0; light off

;LAYER_END

;LAYER_START:43
;currPos:2.2
M6054 "44.png";show Image
G0 Z7.2 F65;
G0 Z2.2 F150;
G4 P0;
M106 S255;light on
G4 P6000;
M106 S0; light off

;LAYER_END

;LAYER_START:44
;currPos:2.25
M6054 "45.png";show Image
G0 Z7.25 F65;
G0 Z2.25 F150;
G4 P0;
M106 S255;light on
G4 P6000;
M106 S0; light off

;LAYER_END

;LAYER_START:45
;currPos:2.3
M6054 "46.png";show Image
G0 Z7.3 F65;
G0 Z2.3 F150;
G4 P0;
M106 S255;light on
G4 P6000;
M106 S0; light off

;LAYER_END

;LAYER_START:46
;currPos:2.35
M6054 "47.png";show Image
G0 Z7.35 F65;
G0 Z2.35 F150;
G4 P0;
M106 S255;light on
G4 P6000;
M106 S0; light off

;LAYER_END

;LAYER_START:47
;currPos:2.4
M6054 "48.png";show Image
G0 Z7.4 F65;
G0 Z2.4 F150;
G4 P0;
M106 S255;light on
G4 P6000;
M106 S0; light off

;LAYER_END

;LAYER_START:48
;currPos:2.45
M6054 "49.png";show Image
G0 Z7.45 F65;
G0 Z2.45 F150;
G4 P0;
M106 S255;light on
G4 P6000;
M106 S0; light off

;LAYER_END

;LAYER_START:49
;currPos:2.5
M6054 "50.png";show Image
G0 Z7.5 F65;
G0 Z2.5 F150;
G4 P0;
M106 S255;light on
G4 P6000;
M106 S0; light off

;LAYER_END

;LAYER_START:50
;currPos:2.55
M6054 "51.png";show Image
G0 Z7.55 F65;
G0 Z2.55 F150;
G4 P0;
M106 S255;light on
G4 P6000;
M106 S0; light off

;LAYER_END

;LAYER_START:51
;currPos:2.6
M6054 "52.png";show Image
G0 Z7.6 F65;
G0 Z2.6 F150;
G4 P0;
M106 S255;light on
G4 P6000;
M106 S0; light off

;LAYER_END

;LAYER_START:52
;currPos:2.65
M6054 "53.png";show Image
G0 Z7.65 F65;
G0 Z2.65 F150;
G4 P0;
M106 S255;light on
G4 P6000;
M106 S0; light off

;LAYER_END

;LAYER_START:53
;currPos:2.7
M6054 "54.png";show Image
G0 Z7.7 F65;
G0 Z2.7 F150;
G4 P0;
M106 S255;light on
G4 P6000;
M106 S0; light off

;LAYER_END

;LAYER_START:54
;currPos:2.75
M6054 "55.png";show Image
G0 Z7.75 F65;
G0 Z2.75 F150;
G4 P0;
M106 S255;light on
G4 P6000;
M106 S0; light off

;LAYER_END

;LAYER_START:55
;currPos:2.8
M6054 "56.png";show Image
G0 Z7.8 F65;
G0 Z2.8 F150;
G4 P0;
M106 S255;light on
G4 P6000;
M106 S0; light off

;LAYER_END

;LAYER_START:56
;currPos:2.85
M6054 "57.png";show Image
G0 Z7.85 F65;
G0 Z2.85 F150;
G4 P0;
M106 S255;light on
G4 P6000;
M106 S0; light off

;LAYER_END

;LAYER_START:57
;currPos:2.9
M6054 "58.png";show Image
G0 Z7.9 F65;
G0 Z2.9 F150;
G4 P0;
M106 S255;light on
G4 P6000;
M106 S0; light off

;LAYER_END

;LAYER_START:58
;currPos:2.95
M6054 "59.png";show Image
G0 Z7.95 F65;
G0 Z2.95 F150;
G4 P0;
M106 S255;light on
G4 P6000;
M106 S0; light off

;LAYER_END

;LAYER_START:59
;currPos:3
M6054 "60.png";show Image
G0 Z8 F65;
G0 Z3 F150;
G4 P0;
M106 S255;light on
G4 P6000;
M106 S0; light off

;LAYER_END

;LAYER_START:60
;currPos:3.05
M6054 "61.png";show Image
G0 Z8.05 F65;
G0 Z3.05 F150;
G4 P0;
M106 S255;light on
G4 P6000;
M106 S0; light off

;LAYER_END

;LAYER_START:61
;currPos:3.1
M6054 "62.png";show Image
G0 Z8.1 F65;
G0 Z3.1 F150;
G4 P0;
M106 S255;light on
G4 P6000;
M106 S0; light off

;LAYER_END

;LAYER_START:62
;currPos:3.15
M6054 "63.png";show Image
G0 Z8.15 F65;
G0 Z3.15 F150;
G4 P0;
M106 S255;light on
G4 P6000;
M106 S0; light off

;LAYER_END

;LAYER_START:63
;currPos:3.2
M6054 "64.png";show Image
G0 Z8.2 F65;
G0 Z3.2 F150;
G4 P0;
M106 S255;light on
G4 P6000;
M106 S0; light off

;LAYER_END

;LAYER_START:64
;currPos:3.25
M6054 "65.png";show Image
G0 Z8.25 F65;
G0 Z3.25 F150;
G4 P0;
M106 S255;light on
G4 P6000;
M106 S0; light off

;LAYER_END

;LAYER_START:65
;currPos:3.3
M6054 "66.png";show Image
G0 Z8.3 F65;
G0 Z3.3 F150;
G4 P0;
M106 S255;light on
G4 P6000;
M106 S0; light off

;LAYER_END

;LAYER_START:66
;currPos:3.35
M6054 "67.png";show Image
G0 Z8.35 F65;
G0 Z3.35 F150;
G4 P0;
M106 S255;light on
G4 P6000;
M106 S0; light off

;LAYER_END

;LAYER_START:67
;currPos:3.4
M6054 "68.png";show Image
G0 Z8.4 F65;
G0 Z3.4 F150;
G4 P0;
M106 S255;light on
G4 P6000;
M106 S0; light off

;LAYER_END

;LAYER_START:68
;currPos:3.45
M6054 "69.png";show Image
G0 Z8.45 F65;
G0 Z3.45 F150;
G4 P0;
M106 S255;light on
G4 P6000;
M106 S0; light off

;LAYER_END

;LAYER_START:69
;currPos:3.5
M6054 "70.png";show Image
G0 Z8.5 F65;
G0 Z3.5 F150;
G4 P0;
M106 S255;light on
G4 P6000;
M106 S0; light off

;LAYER_END

;LAYER_START:70
;currPos:3.55
M6054 "71.png";show Image
G0 Z8.55 F65;
G0 Z3.55 F150;
G4 P0;
M106 S255;light on
G4 P6000;
M106 S0; light off

;LAYER_END

;LAYER_START:71
;currPos:3.6
M6054 "72.png";show Image
G0 Z8.6 F65;
G0 Z3.6 F150;
G4 P0;
M106 S255;light on
G4 P6000;
M106 S0; light off

;LAYER_END

;LAYER_START:72
;currPos:3.65
M6054 "73.png";show Image
G0 Z8.65 F65;
G0 Z3.65 F150;
G4 P0;
M106 S255;light on
G4 P6000;
M106 S0; light off

;LAYER_END

;LAYER_START:73
;currPos:3.7
M6054 "74.png";show Image
G0 Z8.7 F65;
G0 Z3.7 F150;
G4 P0;
M106 S255;light on
G4 P6000;
M106 S0; light off

;LAYER_END

;LAYER_START:74
;currPos:3.75
M6054 "75.png";show Image
G0 Z8.75 F65;
G0 Z3.75 F150;
G4 P0;
M106 S255;light on
G4 P6000;
M106 S0; light off

;LAYER_END

;LAYER_START:75
;currPos:3.8
M6054 "76.png";show Image
G0 Z8.8 F65;
G0 Z3.8 F150;
G4 P0;
M106 S255;light on
G4 P6000;
M106 S0; light off

;LAYER_END

;LAYER_START:76
;currPos:3.85
M6054 "77.png";show Image
G0 Z8.85 F65;
G0 Z3.85 F150;
G4 P0;
M106 S255;light on
G4 P6000;
M106 S0; light off

;LAYER_END

;LAYER_START:77
;currPos:3.9
M6054 "78.png";show Image
G0 Z8.9 F65;
G0 Z3.9 F150;
G4 P0;
M106 S255;light on
G4 P6000;
M106 S0; light off

;LAYER_END

;LAYER_START:78
;currPos:3.95
M6054 "79.png";show Image
G0 Z8.95 F65;
G0 Z3.95 F150;
G4 P0;
M106 S255;light on
G4 P6000;
M106 S0; light off

;LAYER_END

;LAYER_START:79
;currPos:4
M6054 "80.png";show Image
G0 Z9 F65;
G0 Z4 F150;
G4 P0;
M106 S255;light on
G4 P6000;
M106 S0; light off

;LAYER_END

;LAYER_START:80
;currPos:4.05
M6054 "81.png";show Image
G0 Z9.05 F65;
G0 Z4.05 F150;
G4 P0;
M106 S255;light on
G4 P6000;
M106 S0; light off

;LAYER_END

;LAYER_START:81
;currPos:4.1
M6054 "82.png";show Image
G0 Z9.1 F65;
G0 Z4.1 F150;
G4 P0;
M106 S255;light on
G4 P6000;
M106 S0; light off

;LAYER_END

;LAYER_START:82
;currPos:4.15
M6054 "83.png";show Image
G0 Z9.15 F65;
G0 Z4.15 F150;
G4 P0;
M106 S255;light on
G4 P6000;
M106 S0; light off

;LAYER_END

;LAYER_START:83
;currPos:4.2
M6054 "84.png";show Image
G0 Z9.2 F65;
G0 Z4.2 F150;
G4 P0;
M106 S255;light on
G4 P6000;
M106 S0; light off

;LAYER_END

;LAYER_START:84
;currPos:4.25
M6054 "85.png";show Image
G0 Z9.25 F65;
G0 Z4.25 F150;
G4 P0;
M106 S255;light on
G4 P6000;
M106 S0; light off

;LAYER_END

;LAYER_START:85
;currPos:4.3
M6054 "86.png";show Image
G0 Z9.3 F65;
G0 Z4.3 F150;
G4 P0;
M106 S255;light on
G4 P6000;
M106 S0; light off

;LAYER_END

;LAYER_START:86
;currPos:4.35
M6054 "87.png";show Image
G0 Z9.35 F65;
G0 Z4.35 F150;
G4 P0;
M106 S255;light on
G4 P6000;
M106 S0; light off

;LAYER_END

;LAYER_START:87
;currPos:4.4
M6054 "88.png";show Image
G0 Z9.4 F65;
G0 Z4.4 F150;
G4 P0;
M106 S255;light on
G4 P6000;
M106 S0; light off

;LAYER_END

;LAYER_START:88
;currPos:4.45
M6054 "89.png";show Image
G0 Z9.45 F65;
G0 Z4.45 F150;
G4 P0;
M106 S255;light on
G4 P6000;
M106 S0; light off

;LAYER_END

;LAYER_START:89
;currPos:4.5
M6054 "90.png";show Image
G0 Z9.5 F65;
G0 Z4.5 F150;
G4 P0;
M106 S255;light on
G4 P6000;
M106 S0; light off

;LAYER_END

;LAYER_START:90
;currPos:4.55
M6054 "91.png";show Image
G0 Z9.55 F65;
G0 Z4.55 F150;
G4 P0;
M106 S255;light on
G4 P6000;
M106 S0; light off

;LAYER_END

;LAYER_START:91
;currPos:4.6
M6054 "92.png";show Image
G0 Z9.6 F65;
G0 Z4.6 F150;
G4 P0;
M106 S255;light on
G4 P6000;
M106 S0; light off

;LAYER_END

;LAYER_START:92
;currPos:4.65
M6054 "93.png";show Image
G0 Z9.65 F65;
G0 Z4.65 F150;
G4 P0;
M106 S255;light on
G4 P6000;
M106 S0; light off

;LAYER_END

;LAYER_START:93
;currPos:4.7
M6054 "94.png";show Image
G0 Z9.7 F65;
G0 Z4.7 F150;
G4 P0;
M106 S255;light on
G4 P6000;
M106 S0; light off

;LAYER_END

;LAYER_START:94
;currPos:4.75
M6054 "95.png";show Image
G0 Z9.75 F65;
G0 Z4.75 F150;
G4 P0;
M106 S255;light on
G4 P6000;
M106 S0; light off

;LAYER_END

;LAYER_START:95
;currPos:4.8
M6054 "96.png";show Image
G0 Z9.8 F65;
G0 Z4.8 F150;
G4 P0;
M106 S255;light on
G4 P6000;
M106 S0; light off

;LAYER_END

;LAYER_START:96
;currPos:4.85
M6054 "97.png";show Image
G0 Z9.85 F65;
G0 Z4.85 F150;
G4 P0;
M106 S255;light on
G4 P6000;
M106 S0; light off

;LAYER_END

;LAYER_START:97
;currPos:4.9
M6054 "98.png";show Image
G0 Z9.9 F65;
G0 Z4.9 F150;
G4 P0;
M106 S255;light on
G4 P6000;
M106 S0; light off

;LAYER_END

;LAYER_START:98
;currPos:4.95
M6054 "99.png";show Image
G0 Z9.95 F65;
G0 Z4.95 F150;
G4 P0;
M106 S255;light on
G4 P6000;
M106 S0; light off

;LAYER_END

;LAYER_START:99
;currPos:5
M6054 "100.png";show Image
G0 Z10 F65;
G0 Z5 F150;
G4 P0;
M106 S255;light on
G4 P6000;
M106 S0; light off

;LAYER_END

;LAYER_START:100
;currPos:5.05
M6054 "101.png";show Image
G0 Z10.05 F65;
G0 Z5.05 F150;
G4 P0;
M106 S255;light on
G4 P6000;
M106 S0; light off

;LAYER_END

;LAYER_START:101
;currPos:5.1
M6054 "102.png";show Image
G0 Z10.1 F65;
G0 Z5.1 F150;
G4 P0;
M106 S255;light on
G4 P6000;
M106 S0; light off

;LAYER_END

;LAYER_START:102
;currPos:5.15
M6054 "103.png";show Image
G0 Z10.15 F65;
G0 Z5.15 F150;
G4 P0;
M106 S255;light on
G4 P6000;
M106 S0; light off

;LAYER_END

;LAYER_START:103
;currPos:5.2
M6054 "104.png";show Image
G0 Z10.2 F65;
G0 Z5.2 F150;
G4 P0;
M106 S255;light on
G4 P6000;
M106 S0; light off

;LAYER_END

;LAYER_START:104
;currPos:5.25
M6054 "105.png";show Image
G0 Z10.25 F65;
G0 Z5.25 F150;
G4 P0;
M106 S255;light on
G4 P6000;
M106 S0; light off

;LAYER_END

;LAYER_START:105
;currPos:5.3
M6054 "106.png";show Image
G0 Z10.3 F65;
G0 Z5.3 F150;
G4 P0;
M106 S255;light on
G4 P6000;
M106 S0; light off

;LAYER_END

;LAYER_START:106
;currPos:5.35
M6054 "107.png";show Image
G0 Z10.35 F65;
G0 Z5.35 F150;
G4 P0;
M106 S255;light on
G4 P6000;
M106 S0; light off

;LAYER_END

;LAYER_START:107
;currPos:5.4
M6054 "108.png";show Image
G0 Z10.4 F65;
G0 Z5.4 F150;
G4 P0;
M106 S255;light on
G4 P6000;
M106 S0; light off

;LAYER_END

;LAYER_START:108
;currPos:5.45
M6054 "109.png";show Image
G0 Z10.45 F65;
G0 Z5.45 F150;
G4 P0;
M106 S255;light on
G4 P6000;
M106 S0; light off

;LAYER_END

;LAYER_START:109
;currPos:5.5
M6054 "110.png";show Image
G0 Z10.5 F65;
G0 Z5.5 F150;
G4 P0;
M106 S255;light on
G4 P6000;
M106 S0; light off

;LAYER_END

;LAYER_START:110
;currPos:5.55
M6054 "111.png";show Image
G0 Z10.55 F65;
G0 Z5.55 F150;
G4 P0;
M106 S255;light on
G4 P6000;
M106 S0; light off

;LAYER_END

;LAYER_START:111
;currPos:5.6
M6054 "112.png";show Image
G0 Z10.6 F65;
G0 Z5.6 F150;
G4 P0;
M106 S255;light on
G4 P6000;
M106 S0; light off

;LAYER_END

;LAYER_START:112
;currPos:5.65
M6054 "113.png";show Image
G0 Z10.65 F65;
G0 Z5.65 F150;
G4 P0;
M106 S255;light on
G4 P6000;
M106 S0; light off

;LAYER_END

;LAYER_START:113
;currPos:5.7
M6054 "114.png";show Image
G0 Z10.7 F65;
G0 Z5.7 F150;
G4 P0;
M106 S255;light on
G4 P6000;
M106 S0; light off

;LAYER_END

;LAYER_START:114
;currPos:5.75
M6054 "115.png";show Image
G0 Z10.75 F65;
G0 Z5.75 F150;
G4 P0;
M106 S255;light on
G4 P6000;
M106 S0; light off

;LAYER_END

;LAYER_START:115
;currPos:5.8
M6054 "116.png";show Image
G0 Z10.8 F65;
G0 Z5.8 F150;
G4 P0;
M106 S255;light on
G4 P6000;
M106 S0; light off

;LAYER_END

;LAYER_START:116
;currPos:5.85
M6054 "117.png";show Image
G0 Z10.85 F65;
G0 Z5.85 F150;
G4 P0;
M106 S255;light on
G4 P6000;
M106 S0; light off

;LAYER_END

;LAYER_START:117
;currPos:5.9
M6054 "118.png";show Image
G0 Z10.9 F65;
G0 Z5.9 F150;
G4 P0;
M106 S255;light on
G4 P6000;
M106 S0; light off

;LAYER_END

;LAYER_START:118
;currPos:5.95
M6054 "119.png";show Image
G0 Z10.95 F65;
G0 Z5.95 F150;
G4 P0;
M106 S255;light on
G4 P6000;
M106 S0; light off

;LAYER_END

;LAYER_START:119
;currPos:6
M6054 "120.png";show Image
G0 Z11 F65;
G0 Z6 F150;
G4 P0;
M106 S255;light on
G4 P6000;
M106 S0; light off

;LAYER_END

;LAYER_START:120
;currPos:6.05
M6054 "121.png";show Image
G0 Z11.05 F65;
G0 Z6.05 F150;
G4 P0;
M106 S255;light on
G4 P6000;
M106 S0; light off

;LAYER_END

;LAYER_START:121
;currPos:6.1
M6054 "122.png";show Image
G0 Z11.1 F65;
G0 Z6.1 F150;
G4 P0;
M106 S255;light on
G4 P6000;
M106 S0; light off

;LAYER_END

;LAYER_START:122
;currPos:6.15
M6054 "123.png";show Image
G0 Z11.15 F65;
G0 Z6.15 F150;
G4 P0;
M106 S255;light on
G4 P6000;
M106 S0; light off

;LAYER_END

;LAYER_START:123
;currPos:6.2
M6054 "124.png";show Image
G0 Z11.2 F65;
G0 Z6.2 F150;
G4 P0;
M106 S255;light on
G4 P6000;
M106 S0; light off

;LAYER_END

;LAYER_START:124
;currPos:6.25
M6054 "125.png";show Image
G0 Z11.25 F65;
G0 Z6.25 F150;
G4 P0;
M106 S255;light on
G4 P6000;
M106 S0; light off

;LAYER_END

;LAYER_START:125
;currPos:6.3
M6054 "126.png";show Image
G0 Z11.3 F65;
G0 Z6.3 F150;
G4 P0;
M106 S255;light on
G4 P6000;
M106 S0; light off

;LAYER_END

;LAYER_START:126
;currPos:6.35
M6054 "127.png";show Image
G0 Z11.35 F65;
G0 Z6.35 F150;
G4 P0;
M106 S255;light on
G4 P6000;
M106 S0; light off

;LAYER_END

;LAYER_START:127
;currPos:6.4
M6054 "128.png";show Image
G0 Z11.4 F65;
G0 Z6.4 F150;
G4 P0;
M106 S255;light on
G4 P6000;
M106 S0; light off

;LAYER_END

;LAYER_START:128
;currPos:6.45
M6054 "129.png";show Image
G0 Z11.45 F65;
G0 Z6.45 F150;
G4 P0;
M106 S255;light on
G4 P6000;
M106 S0; light off

;LAYER_END

;LAYER_START:129
;currPos:6.5
M6054 "130.png";show Image
G0 Z11.5 F65;
G0 Z6.5 F150;
G4 P0;
M106 S255;light on
G4 P6000;
M106 S0; light off

;LAYER_END

;LAYER_START:130
;currPos:6.55
M6054 "131.png";show Image
G0 Z11.55 F65;
G0 Z6.55 F150;
G4 P0;
M106 S255;light on
G4 P6000;
M106 S0; light off

;LAYER_END

;LAYER_START:131
;currPos:6.6
M6054 "132.png";show Image
G0 Z11.6 F65;
G0 Z6.6 F150;
G4 P0;
M106 S255;light on
G4 P6000;
M106 S0; light off

;LAYER_END

;LAYER_START:132
;currPos:6.65
M6054 "133.png";show Image
G0 Z11.65 F65;
G0 Z6.65 F150;
G4 P0;
M106 S255;light on
G4 P6000;
M106 S0; light off

;LAYER_END

;LAYER_START:133
;currPos:6.7
M6054 "134.png";show Image
G0 Z11.7 F65;
G0 Z6.7 F150;
G4 P0;
M106 S255;light on
G4 P6000;
M106 S0; light off

;LAYER_END

;LAYER_START:134
;currPos:6.75
M6054 "135.png";show Image
G0 Z11.75 F65;
G0 Z6.75 F150;
G4 P0;
M106 S255;light on
G4 P6000;
M106 S0; light off

;LAYER_END

;LAYER_START:135
;currPos:6.8
M6054 "136.png";show Image
G0 Z11.8 F65;
G0 Z6.8 F150;
G4 P0;
M106 S255;light on
G4 P6000;
M106 S0; light off

;LAYER_END

;LAYER_START:136
;currPos:6.85
M6054 "137.png";show Image
G0 Z11.85 F65;
G0 Z6.85 F150;
G4 P0;
M106 S255;light on
G4 P6000;
M106 S0; light off

;LAYER_END

;LAYER_START:137
;currPos:6.9
M6054 "138.png";show Image
G0 Z11.9 F65;
G0 Z6.9 F150;
G4 P0;
M106 S255;light on
G4 P6000;
M106 S0; light off

;LAYER_END

;LAYER_START:138
;currPos:6.95
M6054 "139.png";show Image
G0 Z11.95 F65;
G0 Z6.95 F150;
G4 P0;
M106 S255;light on
G4 P6000;
M106 S0; light off

;LAYER_END

;LAYER_START:139
;currPos:7
M6054 "140.png";show Image
G0 Z12 F65;
G0 Z7 F150;
G4 P0;
M106 S255;light on
G4 P6000;
M106 S0; light off

;LAYER_END

;LAYER_START:140
;currPos:7.05
M6054 "141.png";show Image
G0 Z12.05 F65;
G0 Z7.05 F150;
G4 P0;
M106 S255;light on
G4 P6000;
M106 S0; light off

;LAYER_END

;LAYER_START:141
;currPos:7.1
M6054 "142.png";show Image
G0 Z12.1 F65;
G0 Z7.1 F150;
G4 P0;
M106 S255;light on
G4 P6000;
M106 S0; light off

;LAYER_END

;LAYER_START:142
;currPos:7.15
M6054 "143.png";show Image
G0 Z12.15 F65;
G0 Z7.15 F150;
G4 P0;
M106 S255;light on
G4 P6000;
M106 S0; light off

;LAYER_END

;LAYER_START:143
;currPos:7.2
M6054 "144.png";show Image
G0 Z12.2 F65;
G0 Z7.2 F150;
G4 P0;
M106 S255;light on
G4 P6000;
M106 S0; light off

;LAYER_END

;LAYER_START:144
;currPos:7.25
M6054 "145.png";show Image
G0 Z12.25 F65;
G0 Z7.25 F150;
G4 P0;
M106 S255;light on
G4 P6000;
M106 S0; light off

;LAYER_END

;LAYER_START:145
;currPos:7.3
M6054 "146.png";show Image
G0 Z12.3 F65;
G0 Z7.3 F150;
G4 P0;
M106 S255;light on
G4 P6000;
M106 S0; light off

;LAYER_END

;LAYER_START:146
;currPos:7.35
M6054 "147.png";show Image
G0 Z12.35 F65;
G0 Z7.35 F150;
G4 P0;
M106 S255;light on
G4 P6000;
M106 S0; light off

;LAYER_END

;LAYER_START:147
;currPos:7.4
M6054 "148.png";show Image
G0 Z12.4 F65;
G0 Z7.4 F150;
G4 P0;
M106 S255;light on
G4 P6000;
M106 S0; light off

;LAYER_END

;LAYER_START:148
;currPos:7.45
M6054 "149.png";show Image
G0 Z12.45 F65;
G0 Z7.45 F150;
G4 P0;
M106 S255;light on
G4 P6000;
M106 S0; light off

;LAYER_END

;LAYER_START:149
;currPos:7.5
M6054 "150.png";show Image
G0 Z12.5 F65;
G0 Z7.5 F150;
G4 P0;
M106 S255;light on
G4 P6000;
M106 S0; light off

;LAYER_END

;LAYER_START:150
;currPos:7.55
M6054 "151.png";show Image
G0 Z12.55 F65;
G0 Z7.55 F150;
G4 P0;
M106 S255;light on
G4 P6000;
M106 S0; light off

;LAYER_END

;LAYER_START:151
;currPos:7.6
M6054 "152.png";show Image
G0 Z12.6 F65;
G0 Z7.6 F150;
G4 P0;
M106 S255;light on
G4 P6000;
M106 S0; light off

;LAYER_END

;LAYER_START:152
;currPos:7.65
M6054 "153.png";show Image
G0 Z12.65 F65;
G0 Z7.65 F150;
G4 P0;
M106 S255;light on
G4 P6000;
M106 S0; light off

;LAYER_END

;LAYER_START:153
;currPos:7.7
M6054 "154.png";show Image
G0 Z12.7 F65;
G0 Z7.7 F150;
G4 P0;
M106 S255;light on
G4 P6000;
M106 S0; light off

;LAYER_END

;LAYER_START:154
;currPos:7.75
M6054 "155.png";show Image
G0 Z12.75 F65;
G0 Z7.75 F150;
G4 P0;
M106 S255;light on
G4 P6000;
M106 S0; light off

;LAYER_END

;LAYER_START:155
;currPos:7.8
M6054 "156.png";show Image
G0 Z12.8 F65;
G0 Z7.8 F150;
G4 P0;
M106 S255;light on
G4 P6000;
M106 S0; light off

;LAYER_END

;LAYER_START:156
;currPos:7.85
M6054 "157.png";show Image
G0 Z12.85 F65;
G0 Z7.85 F150;
G4 P0;
M106 S255;light on
G4 P6000;
M106 S0; light off

;LAYER_END

;LAYER_START:157
;currPos:7.9
M6054 "158.png";show Image
G0 Z12.9 F65;
G0 Z7.9 F150;
G4 P0;
M106 S255;light on
G4 P6000;
M106 S0; light off

;LAYER_END

;LAYER_START:158
;currPos:7.95
M6054 "159.png";show Image
G0 Z12.95 F65;
G0 Z7.95 F150;
G4 P0;
M106 S255;light on
G4 P6000;
M106 S0; light off

;LAYER_END

;LAYER_START:159
;currPos:8
M6054 "160.png";show Image
G0 Z13 F65;
G0 Z8 F150;
G4 P0;
M106 S255;light on
G4 P6000;
M106 S0; light off

;LAYER_END

;LAYER_START:160
;currPos:8.05
M6054 "161.png";show Image
G0 Z13.05 F65;
G0 Z8.05 F150;
G4 P0;
M106 S255;light on
G4 P6000;
M106 S0; light off

;LAYER_END

;LAYER_START:161
;currPos:8.1
M6054 "162.png";show Image
G0 Z13.1 F65;
G0 Z8.1 F150;
G4 P0;
M106 S255;light on
G4 P6000;
M106 S0; light off

;LAYER_END

;LAYER_START:162
;currPos:8.15
M6054 "163.png";show Image
G0 Z13.15 F65;
G0 Z8.15 F150;
G4 P0;
M106 S255;light on
G4 P6000;
M106 S0; light off

;LAYER_END

;LAYER_START:163
;currPos:8.2
M6054 "164.png";show Image
G0 Z13.2 F65;
G0 Z8.2 F150;
G4 P0;
M106 S255;light on
G4 P6000;
M106 S0; light off

;LAYER_END

;LAYER_START:164
;currPos:8.25
M6054 "165.png";show Image
G0 Z13.25 F65;
G0 Z8.25 F150;
G4 P0;
M106 S255;light on
G4 P6000;
M106 S0; light off

;LAYER_END

;LAYER_START:165
;currPos:8.3
M6054 "166.png";show Image
G0 Z13.3 F65;
G0 Z8.3 F150;
G4 P0;
M106 S255;light on
G4 P6000;
M106 S0; light off

;LAYER_END

;LAYER_START:166
;currPos:8.35
M6054 "167.png";show Image
G0 Z13.35 F65;
G0 Z8.35 F150;
G4 P0;
M106 S255;light on
G4 P6000;
M106 S0; light off

;LAYER_END

;LAYER_START:167
;currPos:8.4
M6054 "168.png";show Image
G0 Z13.4 F65;
G0 Z8.4 F150;
G4 P0;
M106 S255;light on
G4 P6000;
M106 S0; light off

;LAYER_END

;LAYER_START:168
;currPos:8.45
M6054 "169.png";show Image
G0 Z13.45 F65;
G0 Z8.45 F150;
G4 P0;
M106 S255;light on
G4 P6000;
M106 S0; light off

;LAYER_END

;LAYER_START:169
;currPos:8.5
M6054 "170.png";show Image
G0 Z13.5 F65;
G0 Z8.5 F150;
G4 P0;
M106 S255;light on
G4 P6000;
M106 S0; light off

;LAYER_END

;LAYER_START:170
;currPos:8.55
M6054 "171.png";show Image
G0 Z13.55 F65;
G0 Z8.55 F150;
G4 P0;
M106 S255;light on
G4 P6000;
M106 S0; light off

;LAYER_END

;LAYER_START:171
;currPos:8.6
M6054 "172.png";show Image
G0 Z13.6 F65;
G0 Z8.6 F150;
G4 P0;
M106 S255;light on
G4 P6000;
M106 S0; light off

;LAYER_END

;LAYER_START:172
;currPos:8.65
M6054 "173.png";show Image
G0 Z13.65 F65;
G0 Z8.65 F150;
G4 P0;
M106 S255;light on
G4 P6000;
M106 S0; light off

;LAYER_END

;LAYER_START:173
;currPos:8.7
M6054 "174.png";show Image
G0 Z13.7 F65;
G0 Z8.7 F150;
G4 P0;
M106 S255;light on
G4 P6000;
M106 S0; light off

;LAYER_END

;LAYER_START:174
;currPos:8.75
M6054 "175.png";show Image
G0 Z13.75 F65;
G0 Z8.75 F150;
G4 P0;
M106 S255;light on
G4 P6000;
M106 S0; light off

;LAYER_END

;LAYER_START:175
;currPos:8.8
M6054 "176.png";show Image
G0 Z13.8 F65;
G0 Z8.8 F150;
G4 P0;
M106 S255;light on
G4 P6000;
M106 S0; light off

;LAYER_END

;LAYER_START:176
;currPos:8.85
M6054 "177.png";show Image
G0 Z13.85 F65;
G0 Z8.85 F150;
G4 P0;
M106 S255;light on
G4 P6000;
M106 S0; light off

;LAYER_END

;LAYER_START:177
;currPos:8.9
M6054 "178.png";show Image
G0 Z13.9 F65;
G0 Z8.9 F150;
G4 P0;
M106 S255;light on
G4 P6000;
M106 S0; light off

;LAYER_END

;LAYER_START:178
;currPos:8.95
M6054 "179.png";show Image
G0 Z13.95 F65;
G0 Z8.95 F150;
G4 P0;
M106 S255;light on
G4 P6000;
M106 S0; light off

;LAYER_END

;LAYER_START:179
;currPos:9
M6054 "180.png";show Image
G0 Z14 F65;
G0 Z9 F150;
G4 P0;
M106 S255;light on
G4 P6000;
M106 S0; light off

;LAYER_END

;END_GCODE_BEGIN
M106 S0;
G1 Z180 F25;
M18;

;END_GCODE_END
